X:1
T:Title
%%score ( 1 2 ) ( 3 4 )
L:1/8
Q:1/4=104
M:4/4
K:Bb
V:1 treble nm="Grand Piano, Soprano"
V:2 treble 
V:3 bass nm="Choir Pad, Bass"
V:4 bass 
V:1
 [FB]>[FB] [Ge]4 [Fd]2 | [GB]>[GB] [Ac]4 B2 | z2 [FB]2 F2 [EG][FA] | [FB][Gc] [Fd]2 c-[Ec] [DB]2- | %4
w: By~R.~E.~De~Reef * * *||||
 [DB]2 [=Ec]2 cd [Fc]2 | [=EB][FA] [FG]2 [EB]2 [FA]2- | [FA]2 [FB]F E-[EA] [DB]2 | %7
w: |||
 F2 E-[EA] Be [Fd]2 | [FB]2 [EG][FA] [FB][Gc] [Fd]2 | [Ge][Fd] c2- [Fc-][Ec] [DB]2- | [DB]6 z2 |] %11
w: ||||
V:2
 x8 | x8 | x8 | z4 .F2 z2 | z4 G2 z2 | x8 | z4 .G2 z2 | z2 .G2 G2 z2 | x8 | z2 G2 z4 | x8 |] %11
V:3
 [B,D]>[B,D] [E,B,]4 B,2 | [G,D]>[G,D] [F,E]4 [B,D]2 | z2 [B,D]2 [D,B,]2 B,C | %3
 B,-[E,B,] [F,B,]2 [F,A,]2 B,2- | B,2 [G,B,]2 [=E,B,]2 [F,A,]2 | C-[A,C] [B,D]2 C2 C2 | %6
 E2[K:treble] [B,D]2 EC [B,D]2 | [B,D]2[K:bass] [B,E]2 [B,E]B, B,2 | z2 .B,2 B,2 z2 | B,2 z2 z4 | %10
 z8 |] %11
V:4
 x8 | x8 | z4 z2 E,2 | .D,2 z2 z4 | x8 | .G,2 z2 z2 F,2- | F,2[K:treble] z2 B,2 z2 | %7
 x2[K:bass] x6 | [B,D]2 E,-[E,C] D,E, [F,B,]2 | C,D, [E,B,]2 [F,A,]2 [B,,B,]2- | [B,,B,]6 z2 |] %11

